X:1
T:Title
%%score ( 1 2 ) ( 3 4 )
L:1/8
Q:1/4=110
M:4/4
K:C
V:1 treble nm="Strings 1, Treble"
V:2 treble 
V:3 bass nm="Strings 1, Bass"
V:4 bass 
V:1
 [CE]2 [CE]>[DF] [EG]2 [Ec]>[FA] | [EG]4 [CE]2 [EG][Gc] | [FB][FA][B,D][CE] [DF][FA] [EG]>[DF] | %3
w: 1.~"Glo ry~ to~ God~ in~ the~|high est!"~ Said~ the~|an gels~ to~ the~ shep herds~ on~ the~|
 [CE]6 z2 | [EG]2 [EG]>[_E^F] [=EG]2 [Ge]>[=Fd] | [Ec]4 [EG]2 [EG][EG] | %6
w: plain;~|Sing ing~ with~ mu sic~ the~|sweet est,~ Christ~ has~|
 [FA][Ac][GB][FA] [FG][FG][FA][FB] | [Ec]6 z2 | [Ge]2 [Ge]>[Fd] [Ec]2 [CE]>[DF] | %9
w: come,~ a~ Sav ior~ ev er more~ to~|reign.~||
 [EG]4 [Ec]2 [Ec][Ec] | [DB]3 D [^CE]2 [=C^F]2 | G6 z2 | [CE]2 [EG]2 [Ge]3 [Gc] | %13
w: ||||
 [Fd]2 [Fc]4 [FA]2 | [FG]3 [FA] [FB]2 [FG]2 | [Ec]6 z2 |] %16
w: |||
V:2
 x8 | x8 | x8 | x8 | x8 | x8 | x8 | x8 | x8 | x8 | x8 | B,CDE F2 [DF]2 | x8 | x8 | x8 | x8 |] %16
V:3
 [C,G,]2 [C,G,]>[C,G,] [C,C]2 [C,C]>[C,C] | [C,C]4 [C,G,]2 [C,G,][E,G,] | %2
 G,G,G,G, [G,,G,][G,,G,] [G,,G,]>[G,,G,] | [C,G,]6 z2 | [C,C]2 [C,C]>[C,C] [C,C]2 [C,C]>[C,G,] | %5
 [C,G,]4 [C,C]2 [C,C][C,C] | [F,C][F,C][F,C][F,C] [G,B,][G,B,]G,G, | [C,G,]6 z2 | %8
 [C,C]2 [C,C]>[C,G,] [C,G,]2 [C,G,]>[C,G,] | [C,C]4 [C,G,]2 [C,G,][C,G,] | %10
 [D,G,]3 [D,^F,] [D,G,]2 [D,A,]2 | G,A,B,C D2 [B,,G,]2 | [C,G,]2 [C,C]2 [C,C]3 [D,_B,] | %13
 [F,A,]2 [F,A,]4 [F,C]2 | [G,B,]3 [G,C] [G,D]2 [G,B,]2 | [C,G,C]6 z2 |] %16
V:4
 x8 | x8 | x8 | x8 | x8 | x8 | x8 | x8 | x8 | x8 | x8 | G,,6 z2 | x8 | x8 | x8 | x8 |] %16

